assets/img/components/videoplayer.svg

<svg width="272" height="143" viewBox="0 0 272 143" fill="none" xmlns="http://www.w3.org/2000/svg">
<rect width="272" height="143" rx="8" fill="#EDEDED"/>
<rect x="29.0752" y="12.936" width="213.849" height="117.128" rx="5" fill="white" stroke="#D9D9D9" stroke-width="2"/>
<path d="M28.0752 110.151H243.924V125.064C243.924 128.377 241.238 131.064 237.924 131.064H34.0752C30.7615 131.064 28.0752 128.377 28.0752 125.064V110.151Z" fill="#154973"/>
<path d="M38.0195 120.392C38.0195 119.407 38.8187 118.607 39.8046 118.607H78.5826C79.5685 118.607 80.3677 119.407 80.3677 120.392C80.3677 121.378 79.5685 122.178 78.5826 122.178H39.8046C38.8187 122.178 38.0195 121.378 38.0195 120.392Z" fill="#CDDDE9"/>
<g clip-path="url(#clip0_243_310)">
<path d="M136.349 82.3252C146.842 82.3252 155.349 73.8186 155.349 63.3252C155.349 52.8318 146.842 44.3252 136.349 44.3252C125.855 44.3252 117.349 52.8318 117.349 63.3252C117.349 73.8186 125.855 82.3252 136.349 82.3252Z" fill="#1B1B1B" fill-opacity="0.6"/>
<path d="M136.349 43.8252C147.118 43.8252 155.849 52.5556 155.849 63.3252C155.849 74.0947 147.118 82.8252 136.349 82.8252C125.579 82.8252 116.849 74.0947 116.849 63.3252C116.849 52.5556 125.579 43.8252 136.349 43.8252Z" stroke="white" stroke-opacity="0.01"/>
<g filter="url(#filter0_dd_243_310)">
<path d="M143.221 62.7385L132.592 56.6015C132.14 56.3408 131.575 56.6668 131.575 57.1882V69.4626C131.575 69.9843 132.14 70.3104 132.592 70.0493L143.221 63.9123C143.673 63.6516 143.673 62.9995 143.221 62.7385Z" fill="white"/>
</g>
</g>
<defs>
<filter id="filter0_dd_243_310" x="126.575" y="55.5098" width="21.9854" height="23.6313" filterUnits="userSpaceOnUse" color-interpolation-filters="sRGB">
<feFlood flood-opacity="0" result="BackgroundImageFix"/>
<feColorMatrix in="SourceAlpha" type="matrix" values="0 0 0 0 0 0 0 0 0 0 0 0 0 0 0 0 0 0 127 0" result="hardAlpha"/>
<feMorphology radius="1" operator="erode" in="SourceAlpha" result="effect1_dropShadow_243_310"/>
<feOffset dy="4"/>
<feGaussianBlur stdDeviation="3"/>
<feComposite in2="hardAlpha" operator="out"/>
<feColorMatrix type="matrix" values="0 0 0 0 0.105882 0 0 0 0 0.105882 0 0 0 0 0.105882 0 0 0 0.01 0"/>
<feBlend mode="normal" in2="BackgroundImageFix" result="effect1_dropShadow_243_310"/>
<feColorMatrix in="SourceAlpha" type="matrix" values="0 0 0 0 0 0 0 0 0 0 0 0 0 0 0 0 0 0 127 0" result="hardAlpha"/>
<feMorphology radius="1" operator="erode" in="SourceAlpha" result="effect2_dropShadow_243_310"/>
<feOffset dy="4"/>
<feGaussianBlur stdDeviation="3"/>
<feComposite in2="hardAlpha" operator="out"/>
<feColorMatrix type="matrix" values="0 0 0 0 0.105882 0 0 0 0 0.105882 0 0 0 0 0.105882 0 0 0 0.1 0"/>
<feBlend mode="normal" in2="effect1_dropShadow_243_310" result="effect2_dropShadow_243_310"/>
<feBlend mode="normal" in="SourceGraphic" in2="effect2_dropShadow_243_310" result="shape"/>
</filter>
<clipPath id="clip0_243_310">
<rect width="38" height="38" fill="white" transform="translate(117.349 44.3252)"/>
</clipPath>
</defs>
</svg>

<svg xmlns="http://www.w3.org/2000/svg" width="272" height="143" fill="none" viewBox="0 0 272 143"><rect width="272" height="143" fill="#ededed" rx="8"/><rect width="213.849" height="117.128" x="29.075" y="12.936" fill="#fff" stroke="#d9d9d9" stroke-width="2" rx="5"/><path fill="#154973" d="M28.075 110.151h215.849v14.913a6 6 0 0 1-6 6H34.075a6 6 0 0 1-6-6z"/><path fill="#cddde9" d="M38.02 120.392c0-.985.799-1.785 1.785-1.785h38.778a1.786 1.786 0 0 1 0 3.571H39.805c-.986 0-1.785-.8-1.785-1.786"/><g clip-path="url(#a)"><path fill="#1b1b1b" fill-opacity=".6" d="M136.349 82.325c10.493 0 19-8.506 19-19s-8.507-19-19-19-19 8.507-19 19 8.506 19 19 19"/><path stroke="#fff" stroke-opacity=".01" d="M136.349 43.825c10.769 0 19.5 8.73 19.5 19.5s-8.731 19.5-19.5 19.5-19.5-8.73-19.5-19.5 8.73-19.5 19.5-19.5Z"/><g filter="url(#b)"><path fill="#fff" d="m143.221 62.739-10.629-6.137a.678.678 0 0 0-1.017.586v12.275c0 .521.565.847 1.017.586l10.629-6.137a.678.678 0 0 0 0-1.173"/></g></g><defs><clipPath id="a"><path fill="#fff" d="M117.349 44.325h38v38h-38z"/></clipPath><filter id="b" width="21.985" height="23.631" x="126.575" y="55.51" color-interpolation-filters="sRGB" filterUnits="userSpaceOnUse"><feFlood flood-opacity="0" result="BackgroundImageFix"/><feColorMatrix in="SourceAlpha" result="hardAlpha" values="0 0 0 0 0 0 0 0 0 0 0 0 0 0 0 0 0 0 127 0"/><feMorphology in="SourceAlpha" radius="1" result="effect1_dropShadow_243_310"/><feOffset dy="4"/><feGaussianBlur stdDeviation="3"/><feComposite in2="hardAlpha" operator="out"/><feColorMatrix values="0 0 0 0 0.105882 0 0 0 0 0.105882 0 0 0 0 0.105882 0 0 0 0.01 0"/><feBlend in2="BackgroundImageFix" result="effect1_dropShadow_243_310"/><feColorMatrix in="SourceAlpha" result="hardAlpha" values="0 0 0 0 0 0 0 0 0 0 0 0 0 0 0 0 0 0 127 0"/><feMorphology in="SourceAlpha" radius="1" result="effect2_dropShadow_243_310"/><feOffset dy="4"/><feGaussianBlur stdDeviation="3"/><feComposite in2="hardAlpha" operator="out"/><feColorMatrix values="0 0 0 0 0.105882 0 0 0 0 0.105882 0 0 0 0 0.105882 0 0 0 0.1 0"/><feBlend in2="effect1_dropShadow_243_310" result="effect2_dropShadow_243_310"/><feBlend in="SourceGraphic" in2="effect2_dropShadow_243_310" result="shape"/></filter></defs></svg>
